images/16683706.svg

<?xml version="1.0" encoding="UTF-8"?>
<svg xmlns="http://www.w3.org/2000/svg" xmlns:xlink="http://www.w3.org/1999/xlink" width="300pt" height="300pt" viewBox="0 0 300 300" version="1.1">
<defs>
<g>
<symbol overflow="visible" id="glyph0-0">
<path style="stroke:none;" d="M 0.640625 2.296875 L 0.640625 -9.171875 L 7.140625 -9.171875 L 7.140625 2.296875 Z M 1.375 1.578125 L 6.421875 1.578125 L 6.421875 -8.4375 L 1.375 -8.4375 Z M 1.375 1.578125 "/>
</symbol>
<symbol overflow="visible" id="glyph0-1">
<path style="stroke:none;" d="M 1.28125 -9.484375 L 3 -9.484375 L 7.203125 -1.546875 L 7.203125 -9.484375 L 8.453125 -9.484375 L 8.453125 0 L 6.71875 0 L 2.515625 -7.921875 L 2.515625 0 L 1.28125 0 Z M 1.28125 -9.484375 "/>
</symbol>
<symbol overflow="visible" id="glyph0-2">
<path style="stroke:none;" d="M 5.125 -8.609375 C 4.1875 -8.609375 3.441406 -8.257812 2.890625 -7.5625 C 2.347656 -6.875 2.078125 -5.929688 2.078125 -4.734375 C 2.078125 -3.535156 2.347656 -2.585938 2.890625 -1.890625 C 3.441406 -1.203125 4.1875 -0.859375 5.125 -0.859375 C 6.050781 -0.859375 6.785156 -1.203125 7.328125 -1.890625 C 7.878906 -2.585938 8.15625 -3.535156 8.15625 -4.734375 C 8.15625 -5.929688 7.878906 -6.875 7.328125 -7.5625 C 6.785156 -8.257812 6.050781 -8.609375 5.125 -8.609375 Z M 5.125 -9.65625 C 6.445312 -9.65625 7.503906 -9.207031 8.296875 -8.3125 C 9.097656 -7.414062 9.5 -6.222656 9.5 -4.734375 C 9.5 -3.234375 9.097656 -2.035156 8.296875 -1.140625 C 7.503906 -0.253906 6.445312 0.1875 5.125 0.1875 C 3.789062 0.1875 2.722656 -0.253906 1.921875 -1.140625 C 1.128906 -2.035156 0.734375 -3.234375 0.734375 -4.734375 C 0.734375 -6.222656 1.128906 -7.414062 1.921875 -8.3125 C 2.722656 -9.207031 3.789062 -9.65625 5.125 -9.65625 Z M 5.125 -9.65625 "/>
</symbol>
<symbol overflow="visible" id="glyph0-3">
<path style="stroke:none;" d="M 1.28125 -9.484375 L 2.5625 -9.484375 L 2.5625 -5.59375 L 7.21875 -5.59375 L 7.21875 -9.484375 L 8.5 -9.484375 L 8.5 0 L 7.21875 0 L 7.21875 -4.515625 L 2.5625 -4.515625 L 2.5625 0 L 1.28125 0 Z M 1.28125 -9.484375 "/>
</symbol>
<symbol overflow="visible" id="glyph0-4">
<path style="stroke:none;" d="M 5.90625 -3.640625 C 5.90625 -4.484375 5.726562 -5.132812 5.375 -5.59375 C 5.03125 -6.0625 4.539062 -6.296875 3.90625 -6.296875 C 3.28125 -6.296875 2.789062 -6.0625 2.4375 -5.59375 C 2.09375 -5.132812 1.921875 -4.484375 1.921875 -3.640625 C 1.921875 -2.796875 2.09375 -2.140625 2.4375 -1.671875 C 2.789062 -1.210938 3.28125 -0.984375 3.90625 -0.984375 C 4.539062 -0.984375 5.03125 -1.210938 5.375 -1.671875 C 5.726562 -2.140625 5.90625 -2.796875 5.90625 -3.640625 Z M 7.078125 -0.875 C 7.078125 0.332031 6.804688 1.226562 6.265625 1.8125 C 5.722656 2.40625 4.898438 2.703125 3.796875 2.703125 C 3.390625 2.703125 3.003906 2.671875 2.640625 2.609375 C 2.273438 2.546875 1.921875 2.453125 1.578125 2.328125 L 1.578125 1.1875 C 1.921875 1.375 2.257812 1.507812 2.59375 1.59375 C 2.925781 1.6875 3.265625 1.734375 3.609375 1.734375 C 4.378906 1.734375 4.953125 1.535156 5.328125 1.140625 C 5.710938 0.742188 5.90625 0.140625 5.90625 -0.671875 L 5.90625 -1.25 C 5.664062 -0.832031 5.351562 -0.519531 4.96875 -0.3125 C 4.59375 -0.101562 4.144531 0 3.625 0 C 2.75 0 2.046875 -0.332031 1.515625 -1 C 0.984375 -1.664062 0.71875 -2.546875 0.71875 -3.640625 C 0.71875 -4.734375 0.984375 -5.613281 1.515625 -6.28125 C 2.046875 -6.945312 2.75 -7.28125 3.625 -7.28125 C 4.144531 -7.28125 4.59375 -7.175781 4.96875 -6.96875 C 5.351562 -6.757812 5.664062 -6.445312 5.90625 -6.03125 L 5.90625 -7.109375 L 7.078125 -7.109375 Z M 7.078125 -0.875 "/>
</symbol>
</g>
</defs>
<g id="surface33297">
<rect x="0" y="0" width="300" height="300" style="fill:rgb(100%,100%,100%);fill-opacity:1;stroke:none;"/>
<path style="fill:none;stroke-width:1.2;stroke-linecap:butt;stroke-linejoin:miter;stroke:rgb(0%,0%,0%);stroke-opacity:1;stroke-miterlimit:10;" d="M 144.820312 191.753906 L 178.957031 184.941406 "/>
<path style="fill:none;stroke-width:1.2;stroke-linecap:butt;stroke-linejoin:miter;stroke:rgb(0%,0%,100%);stroke-opacity:1;stroke-miterlimit:10;" d="M 112.414062 179.03125 L 128.617188 185.394531 "/>
<path style="fill:none;stroke-width:1.2;stroke-linecap:butt;stroke-linejoin:miter;stroke:rgb(0%,0%,0%);stroke-opacity:1;stroke-miterlimit:10;" d="M 128.617188 185.394531 L 144.820312 191.753906 "/>
<path style="fill:none;stroke-width:1.2;stroke-linecap:butt;stroke-linejoin:miter;stroke:rgb(0%,0%,0%);stroke-opacity:1;stroke-miterlimit:10;" d="M 178.957031 184.941406 L 191.476562 172.84375 "/>
<path style="fill:none;stroke-width:1.2;stroke-linecap:butt;stroke-linejoin:miter;stroke:rgb(0%,0%,100%);stroke-opacity:1;stroke-miterlimit:10;" d="M 191.476562 172.84375 L 203.992188 160.75 "/>
<path style="fill:none;stroke-width:1.2;stroke-linecap:butt;stroke-linejoin:miter;stroke:rgb(0%,0%,100%);stroke-opacity:1;stroke-miterlimit:10;" d="M 203.992188 160.75 L 207.984375 143.808594 "/>
<path style="fill:none;stroke-width:1.2;stroke-linecap:butt;stroke-linejoin:miter;stroke:rgb(0%,0%,0%);stroke-opacity:1;stroke-miterlimit:10;" d="M 207.984375 143.808594 L 211.976562 126.863281 "/>
<path style="fill:none;stroke-width:1.2;stroke-linecap:butt;stroke-linejoin:miter;stroke:rgb(0%,0%,100%);stroke-opacity:1;stroke-miterlimit:10;" d="M 203.992188 160.75 L 219.125 169.351562 "/>
<path style="fill:none;stroke-width:1.2;stroke-linecap:butt;stroke-linejoin:miter;stroke:rgb(0%,0%,0%);stroke-opacity:1;stroke-miterlimit:10;" d="M 219.125 169.351562 L 234.253906 177.957031 "/>
<path style=" stroke:none;fill-rule:nonzero;fill:rgb(100%,100%,100%);fill-opacity:1;" d="M 198.992188 152.75 L 208.992188 152.75 L 208.992188 168.75 L 198.992188 168.75 Z M 198.992188 152.75 "/>
<g style="fill:rgb(0%,0%,100%);fill-opacity:1;">
  <use xlink:href="#glyph0-1" x="198.992188" y="165.125977"/>
</g>
<path style="fill:none;stroke-width:1.2;stroke-linecap:butt;stroke-linejoin:miter;stroke:rgb(0%,0%,0%);stroke-opacity:1;stroke-miterlimit:10;" d="M 211.976562 126.863281 L 200.371094 94.042969 "/>
<path style="fill:none;stroke-width:1.2;stroke-linecap:butt;stroke-linejoin:miter;stroke:rgb(0%,0%,0%);stroke-opacity:1;stroke-miterlimit:10;" d="M 202.769531 97.363281 L 216.878906 87.171875 "/>
<path style="fill:none;stroke-width:1.2;stroke-linecap:butt;stroke-linejoin:miter;stroke:rgb(100%,0%,0%);stroke-opacity:1;stroke-miterlimit:10;" d="M 216.878906 87.171875 L 230.992188 76.984375 "/>
<path style="fill:none;stroke-width:1.2;stroke-linecap:butt;stroke-linejoin:miter;stroke:rgb(0%,0%,0%);stroke-opacity:1;stroke-miterlimit:10;" d="M 197.972656 90.722656 L 212.085938 80.53125 "/>
<path style="fill:none;stroke-width:1.2;stroke-linecap:butt;stroke-linejoin:miter;stroke:rgb(100%,0%,0%);stroke-opacity:1;stroke-miterlimit:10;" d="M 212.085938 80.53125 L 226.195312 70.34375 "/>
<path style="fill:none;stroke-width:1.2;stroke-linecap:butt;stroke-linejoin:miter;stroke:rgb(0%,0%,0%);stroke-opacity:1;stroke-miterlimit:10;" d="M 200.371094 94.042969 L 186.617188 83.375 "/>
<path style="fill:none;stroke-width:1.2;stroke-linecap:butt;stroke-linejoin:miter;stroke:rgb(100%,0%,0%);stroke-opacity:1;stroke-miterlimit:10;" d="M 186.617188 83.375 L 172.863281 72.707031 "/>
<path style=" stroke:none;fill-rule:nonzero;fill:rgb(100%,100%,100%);fill-opacity:1;" d="M 223.59375 65.664062 L 234.59375 65.664062 L 234.59375 81.664062 L 223.59375 81.664062 Z M 223.59375 65.664062 "/>
<g style="fill:rgb(100%,0%,0%);fill-opacity:1;">
  <use xlink:href="#glyph0-2" x="223.59375" y="78.040039"/>
</g>
<path style="fill:none;stroke-width:1.2;stroke-linecap:butt;stroke-linejoin:miter;stroke:rgb(100%,0%,0%);stroke-opacity:1;stroke-miterlimit:10;" d="M 172.863281 72.707031 L 155.527344 71.167969 "/>
<path style="fill:none;stroke-width:1.2;stroke-linecap:butt;stroke-linejoin:miter;stroke:rgb(0%,0%,0%);stroke-opacity:1;stroke-miterlimit:10;" d="M 155.527344 71.167969 L 138.1875 69.628906 "/>
<path style=" stroke:none;fill-rule:nonzero;fill:rgb(100%,100%,100%);fill-opacity:1;" d="M 167.863281 64.707031 L 178.863281 64.707031 L 178.863281 80.707031 L 167.863281 80.707031 Z M 167.863281 64.707031 "/>
<g style="fill:rgb(100%,0%,0%);fill-opacity:1;">
  <use xlink:href="#glyph0-2" x="167.863281" y="77.083008"/>
</g>
<path style="fill:none;stroke-width:1.2;stroke-linecap:butt;stroke-linejoin:miter;stroke:rgb(0%,0%,0%);stroke-opacity:1;stroke-miterlimit:10;" d="M 138.1875 69.628906 L 122.769531 77.707031 "/>
<path style="fill:none;stroke-width:1.2;stroke-linecap:butt;stroke-linejoin:miter;stroke:rgb(100%,0%,0%);stroke-opacity:1;stroke-miterlimit:10;" d="M 122.769531 77.707031 L 107.351562 85.785156 "/>
<path style=" stroke:none;fill-rule:nonzero;fill:rgb(100%,100%,100%);fill-opacity:1;" d="M 129.1875 61.628906 L 148.1875 61.628906 L 148.1875 77.628906 L 129.1875 77.628906 Z M 129.1875 61.628906 "/>
<g style="fill:rgb(0%,0%,0%);fill-opacity:1;">
  <use xlink:href="#glyph0-3" x="129.1875" y="74.004883"/>
  <use xlink:href="#glyph0-4" x="139.209961" y="74.004883"/>
</g>
<path style="fill:none;stroke-width:1.2;stroke-linecap:butt;stroke-linejoin:miter;stroke:rgb(100%,0%,0%);stroke-opacity:1;stroke-miterlimit:10;" d="M 107.351562 85.785156 L 98.75 100.914062 "/>
<path style="fill:none;stroke-width:1.2;stroke-linecap:butt;stroke-linejoin:miter;stroke:rgb(0%,0%,0%);stroke-opacity:1;stroke-miterlimit:10;" d="M 98.75 100.914062 L 90.148438 116.046875 "/>
<path style=" stroke:none;fill-rule:nonzero;fill:rgb(100%,100%,100%);fill-opacity:1;" d="M 102.351562 77.785156 L 113.351562 77.785156 L 113.351562 93.785156 L 102.351562 93.785156 Z M 102.351562 77.785156 "/>
<g style="fill:rgb(100%,0%,0%);fill-opacity:1;">
  <use xlink:href="#glyph0-2" x="102.351562" y="90.161133"/>
</g>
<path style="fill:none;stroke-width:1.2;stroke-linecap:butt;stroke-linejoin:miter;stroke:rgb(0%,0%,0%);stroke-opacity:1;stroke-miterlimit:10;" d="M 91.085938 112.0625 L 74.144531 108.070312 "/>
<path style="fill:none;stroke-width:1.2;stroke-linecap:butt;stroke-linejoin:miter;stroke:rgb(100%,0%,0%);stroke-opacity:1;stroke-miterlimit:10;" d="M 74.144531 108.070312 L 57.199219 104.078125 "/>
<path style="fill:none;stroke-width:1.2;stroke-linecap:butt;stroke-linejoin:miter;stroke:rgb(0%,0%,0%);stroke-opacity:1;stroke-miterlimit:10;" d="M 89.207031 120.035156 L 72.265625 116.042969 "/>
<path style="fill:none;stroke-width:1.2;stroke-linecap:butt;stroke-linejoin:miter;stroke:rgb(100%,0%,0%);stroke-opacity:1;stroke-miterlimit:10;" d="M 72.265625 116.042969 L 55.324219 112.050781 "/>
<path style="fill:none;stroke-width:1.2;stroke-linecap:butt;stroke-linejoin:miter;stroke:rgb(0%,0%,0%);stroke-opacity:1;stroke-miterlimit:10;" d="M 90.148438 116.046875 L 92.035156 150.808594 "/>
<path style=" stroke:none;fill-rule:nonzero;fill:rgb(100%,100%,100%);fill-opacity:1;" d="M 45.261719 100.066406 L 56.261719 100.066406 L 56.261719 116.066406 L 45.261719 116.066406 Z M 45.261719 100.066406 "/>
<g style="fill:rgb(100%,0%,0%);fill-opacity:1;">
  <use xlink:href="#glyph0-2" x="45.261719" y="112.442383"/>
</g>
<path style="fill:none;stroke-width:1.2;stroke-linecap:butt;stroke-linejoin:miter;stroke:rgb(0%,0%,0%);stroke-opacity:1;stroke-miterlimit:10;" d="M 92.035156 150.808594 L 102.222656 164.921875 "/>
<path style="fill:none;stroke-width:1.2;stroke-linecap:butt;stroke-linejoin:miter;stroke:rgb(0%,0%,100%);stroke-opacity:1;stroke-miterlimit:10;" d="M 102.222656 164.921875 L 112.414062 179.03125 "/>
<path style="fill:none;stroke-width:1.2;stroke-linecap:butt;stroke-linejoin:miter;stroke:rgb(0%,0%,100%);stroke-opacity:1;stroke-miterlimit:10;" d="M 112.414062 179.03125 L 101.746094 192.785156 "/>
<path style="fill:none;stroke-width:1.2;stroke-linecap:butt;stroke-linejoin:miter;stroke:rgb(0%,0%,0%);stroke-opacity:1;stroke-miterlimit:10;" d="M 101.746094 192.785156 L 91.078125 206.539062 "/>
<path style=" stroke:none;fill-rule:nonzero;fill:rgb(100%,100%,100%);fill-opacity:1;" d="M 107.414062 171.03125 L 117.414062 171.03125 L 117.414062 187.03125 L 107.414062 187.03125 Z M 107.414062 171.03125 "/>
<g style="fill:rgb(0%,0%,100%);fill-opacity:1;">
  <use xlink:href="#glyph0-1" x="107.414062" y="183.407227"/>
</g>
<path style="fill:none;stroke-width:1.2;stroke-linecap:butt;stroke-linejoin:miter;stroke:rgb(0%,0%,0%);stroke-opacity:1;stroke-miterlimit:10;" d="M 91.078125 206.539062 L 56.585938 201.8125 "/>
<path style="fill:none;stroke-width:1.2;stroke-linecap:butt;stroke-linejoin:miter;stroke:rgb(0%,0%,0%);stroke-opacity:1;stroke-miterlimit:10;" d="M 60.378906 200.265625 L 53.804688 184.148438 "/>
<path style="fill:none;stroke-width:1.2;stroke-linecap:butt;stroke-linejoin:miter;stroke:rgb(100%,0%,0%);stroke-opacity:1;stroke-miterlimit:10;" d="M 53.804688 184.148438 L 47.226562 168.03125 "/>
<path style="fill:none;stroke-width:1.2;stroke-linecap:butt;stroke-linejoin:miter;stroke:rgb(0%,0%,0%);stroke-opacity:1;stroke-miterlimit:10;" d="M 52.796875 203.359375 L 46.21875 187.242188 "/>
<path style="fill:none;stroke-width:1.2;stroke-linecap:butt;stroke-linejoin:miter;stroke:rgb(100%,0%,0%);stroke-opacity:1;stroke-miterlimit:10;" d="M 46.21875 187.242188 L 39.644531 171.128906 "/>
<path style="fill:none;stroke-width:1.2;stroke-linecap:butt;stroke-linejoin:miter;stroke:rgb(0%,0%,0%);stroke-opacity:1;stroke-miterlimit:10;" d="M 56.585938 201.8125 L 45.917969 215.566406 "/>
<path style="fill:none;stroke-width:1.2;stroke-linecap:butt;stroke-linejoin:miter;stroke:rgb(100%,0%,0%);stroke-opacity:1;stroke-miterlimit:10;" d="M 45.917969 215.566406 L 35.25 229.320312 "/>
<path style=" stroke:none;fill-rule:nonzero;fill:rgb(100%,100%,100%);fill-opacity:1;" d="M 32.433594 161.582031 L 43.433594 161.582031 L 43.433594 177.582031 L 32.433594 177.582031 Z M 32.433594 161.582031 "/>
<g style="fill:rgb(100%,0%,0%);fill-opacity:1;">
  <use xlink:href="#glyph0-2" x="32.433594" y="173.958008"/>
</g>
<path style=" stroke:none;fill-rule:nonzero;fill:rgb(100%,100%,100%);fill-opacity:1;" d="M 14.25 221.320312 L 35.25 221.320312 L 35.25 237.320312 L 14.25 237.320312 Z M 14.25 221.320312 "/>
<g style="fill:rgb(100%,0%,0%);fill-opacity:1;">
  <use xlink:href="#glyph0-3" x="14.25" y="233.696289"/>
  <use xlink:href="#glyph0-2" x="24.272461" y="233.696289"/>
</g>
<path style="fill:none;stroke-width:1.2;stroke-linecap:butt;stroke-linejoin:miter;stroke:rgb(0%,0%,0%);stroke-opacity:1;stroke-miterlimit:10;" d="M 234.253906 177.957031 L 234.488281 212.765625 "/>
<path style="fill:none;stroke-width:1.2;stroke-linecap:butt;stroke-linejoin:miter;stroke:rgb(0%,0%,0%);stroke-opacity:1;stroke-miterlimit:10;" d="M 232.414062 209.234375 L 217.398438 218.035156 "/>
<path style="fill:none;stroke-width:1.2;stroke-linecap:butt;stroke-linejoin:miter;stroke:rgb(100%,0%,0%);stroke-opacity:1;stroke-miterlimit:10;" d="M 217.398438 218.035156 L 202.382812 226.839844 "/>
<path style="fill:none;stroke-width:1.2;stroke-linecap:butt;stroke-linejoin:miter;stroke:rgb(0%,0%,0%);stroke-opacity:1;stroke-miterlimit:10;" d="M 236.558594 216.300781 L 221.542969 225.101562 "/>
<path style="fill:none;stroke-width:1.2;stroke-linecap:butt;stroke-linejoin:miter;stroke:rgb(100%,0%,0%);stroke-opacity:1;stroke-miterlimit:10;" d="M 221.542969 225.101562 L 206.527344 233.90625 "/>
<path style="fill:none;stroke-width:1.2;stroke-linecap:butt;stroke-linejoin:miter;stroke:rgb(0%,0%,0%);stroke-opacity:1;stroke-miterlimit:10;" d="M 234.488281 212.765625 L 249.617188 221.371094 "/>
<path style="fill:none;stroke-width:1.2;stroke-linecap:butt;stroke-linejoin:miter;stroke:rgb(100%,0%,0%);stroke-opacity:1;stroke-miterlimit:10;" d="M 249.617188 221.371094 L 264.75 229.972656 "/>
<path style=" stroke:none;fill-rule:nonzero;fill:rgb(100%,100%,100%);fill-opacity:1;" d="M 193.453125 222.371094 L 204.453125 222.371094 L 204.453125 238.371094 L 193.453125 238.371094 Z M 193.453125 222.371094 "/>
<g style="fill:rgb(100%,0%,0%);fill-opacity:1;">
  <use xlink:href="#glyph0-2" x="193.453125" y="234.74707"/>
</g>
<path style=" stroke:none;fill-rule:nonzero;fill:rgb(100%,100%,100%);fill-opacity:1;" d="M 254.75 221.972656 L 275.75 221.972656 L 275.75 237.972656 L 254.75 237.972656 Z M 254.75 221.972656 "/>
<g style="fill:rgb(100%,0%,0%);fill-opacity:1;">
  <use xlink:href="#glyph0-2" x="254.75" y="234.348633"/>
  <use xlink:href="#glyph0-3" x="265.240234" y="234.348633"/>
</g>
</g>
</svg>

<svg xmlns="http://www.w3.org/2000/svg" xmlns:xlink="http://www.w3.org/1999/xlink" width="300pt" height="300pt" viewBox="0 0 300 300"><defs><symbol overflow="visible"><path d="M.64 2.297v-11.47h6.5v11.47zm.735-.72h5.047V-8.436H1.375zm0 0"/></symbol><symbol overflow="visible" id="a"><path d="M1.28-9.484H3l4.203 7.937v-7.937h1.25V0H6.72L2.515-7.922V0H1.28zm0 0"/></symbol><symbol overflow="visible" id="b"><path d="M5.125-8.61c-.938 0-1.684.352-2.234 1.047-.542.688-.812 1.633-.812 2.83 0 1.198.27 2.147.813 2.842.55.687 1.297 1.03 2.235 1.03.926 0 1.66-.343 2.203-1.03.55-.696.828-1.645.828-2.844 0-1.196-.277-2.14-.828-2.829-.543-.695-1.277-1.046-2.203-1.046zm0-1.046c1.32 0 2.38.45 3.172 1.344.8.898 1.203 2.09 1.203 3.578 0 1.5-.402 2.7-1.203 3.593C7.504-.255 6.445.186 5.125.186c-1.336 0-2.402-.44-3.203-1.328C1.13-2.036.734-3.235.734-4.735c0-1.49.395-2.68 1.188-3.579.8-.894 1.867-1.343 3.203-1.343zm0 0"/></symbol><symbol overflow="visible" id="c"><path d="M1.28-9.484h1.282v3.89H7.22v-3.89H8.5V0H7.22v-4.516H2.562V0H1.28zm0 0"/></symbol><symbol overflow="visible" id="d"><path d="M5.906-3.64c0-.844-.18-1.493-.53-1.954-.345-.468-.837-.703-1.47-.703-.625 0-1.117.234-1.47.703-.342.46-.514 1.11-.514 1.953s.172 1.5.516 1.968c.35.46.843.688 1.468.688.633 0 1.125-.227 1.47-.688.35-.47.53-1.125.53-1.97zM7.078-.876c0 1.207-.273 2.102-.812 2.688-.543.593-1.368.89-2.47.89-.405 0-.792-.03-1.155-.094-.367-.063-.718-.157-1.062-.282v-1.14c.344.187.68.32 1.016.406.332.093.672.14 1.015.14.77 0 1.343-.2 1.718-.593.383-.398.578-1 .578-1.812v-.578c-.242.418-.554.73-.937.938-.376.21-.825.312-1.345.312-.875 0-1.578-.332-2.11-1C.986-1.664.72-2.547.72-3.64c0-1.094.264-1.973.796-2.64.53-.665 1.234-1 2.11-1 .52 0 .968.104 1.343.31.382.212.694.525.936.94v-1.08h1.172zm0 0"/></symbol></defs><g><path fill="#fff" d="M0 0h300v300H0z"/><path d="M144.82 191.754l34.137-6.813" stroke-width="1.2" stroke="#000" stroke-miterlimit="10" fill="none"/><path d="M112.414 179.03l16.203 6.365" stroke-width="1.2" stroke="#00f" stroke-miterlimit="10" fill="none"/><path d="M128.617 185.395l16.203 6.36M178.957 184.94l12.52-12.096" stroke-width="1.2" stroke="#000" stroke-miterlimit="10" fill="none"/><path d="M191.477 172.844l12.515-12.094M203.992 160.75l3.992-16.94" stroke-width="1.2" stroke="#00f" stroke-miterlimit="10" fill="none"/><path d="M207.984 143.81l3.993-16.947" stroke-width="1.2" stroke="#000" stroke-miterlimit="10" fill="none"/><path d="M203.992 160.75l15.133 8.602" stroke-width="1.2" stroke="#00f" stroke-miterlimit="10" fill="none"/><path d="M219.125 169.352l15.13 8.605" stroke-width="1.2" stroke="#000" stroke-miterlimit="10" fill="none"/><path d="M198.992 152.75h10v16h-10zm0 0" fill="#fff"/><use xlink:href="#a" x="198.992" y="165.126" fill="#00f"/><path d="M211.977 126.863l-11.606-32.82M202.77 97.363l14.11-10.19" stroke-width="1.2" stroke="#000" stroke-miterlimit="10" fill="none"/><path d="M216.88 87.172l14.112-10.188" stroke-width="1.2" stroke="#f00" stroke-miterlimit="10" fill="none"/><path d="M197.973 90.723l14.113-10.192" stroke-width="1.2" stroke="#000" stroke-miterlimit="10" fill="none"/><path d="M212.086 80.53l14.11-10.186" stroke-width="1.2" stroke="#f00" stroke-miterlimit="10" fill="none"/><path d="M200.37 94.043l-13.753-10.668" stroke-width="1.2" stroke="#000" stroke-miterlimit="10" fill="none"/><path d="M186.617 83.375l-13.754-10.668" stroke-width="1.2" stroke="#f00" stroke-miterlimit="10" fill="none"/><path d="M223.594 65.664h11v16h-11zm0 0" fill="#fff"/><use xlink:href="#b" x="223.594" y="78.04" fill="#f00"/><path d="M172.863 72.707l-17.336-1.54" stroke-width="1.2" stroke="#f00" stroke-miterlimit="10" fill="none"/><path d="M155.527 71.168l-17.34-1.54" stroke-width="1.2" stroke="#000" stroke-miterlimit="10" fill="none"/><path d="M167.863 64.707h11v16h-11zm0 0" fill="#fff"/><use xlink:href="#b" x="167.863" y="77.083" fill="#f00"/><path d="M138.188 69.63l-15.418 8.077" stroke-width="1.2" stroke="#000" stroke-miterlimit="10" fill="none"/><path d="M122.77 77.707l-15.418 8.078" stroke-width="1.2" stroke="#f00" stroke-miterlimit="10" fill="none"/><path d="M129.188 61.63h19v16h-19zm0 0" fill="#fff"/><use xlink:href="#c" x="129.188" y="74.005"/><use xlink:href="#d" x="139.21" y="74.005"/><path d="M107.352 85.785l-8.602 15.13" stroke-width="1.2" stroke="#f00" stroke-miterlimit="10" fill="none"/><path d="M98.75 100.914l-8.602 15.133" stroke-width="1.2" stroke="#000" stroke-miterlimit="10" fill="none"/><path d="M102.352 77.785h11v16h-11zm0 0" fill="#fff"/><use xlink:href="#b" x="102.352" y="90.161" fill="#f00"/><path d="M91.086 112.063l-16.94-3.993" stroke-width="1.2" stroke="#000" stroke-miterlimit="10" fill="none"/><path d="M74.145 108.07L57.2 104.078" stroke-width="1.2" stroke="#f00" stroke-miterlimit="10" fill="none"/><path d="M89.207 120.035l-16.94-3.992" stroke-width="1.2" stroke="#000" stroke-miterlimit="10" fill="none"/><path d="M72.266 116.043l-16.942-3.992" stroke-width="1.2" stroke="#f00" stroke-miterlimit="10" fill="none"/><path d="M90.148 116.047l1.887 34.762" stroke-width="1.2" stroke="#000" stroke-miterlimit="10" fill="none"/><path d="M45.262 100.066h11v16h-11zm0 0" fill="#fff"/><use xlink:href="#b" x="45.262" y="112.442" fill="#f00"/><path d="M92.035 150.81l10.188 14.112" stroke-width="1.2" stroke="#000" stroke-miterlimit="10" fill="none"/><path d="M102.223 164.922l10.19 14.11M112.414 179.03l-10.668 13.755" stroke-width="1.2" stroke="#00f" stroke-miterlimit="10" fill="none"/><path d="M101.746 192.785L91.078 206.54" stroke-width="1.2" stroke="#000" stroke-miterlimit="10" fill="none"/><path d="M107.414 171.03h10v16h-10zm0 0" fill="#fff"/><use xlink:href="#a" x="107.414" y="183.407" fill="#00f"/><path d="M91.078 206.54l-34.492-4.727M60.38 200.266l-6.575-16.118" stroke-width="1.2" stroke="#000" stroke-miterlimit="10" fill="none"/><path d="M53.805 184.148l-6.578-16.117" stroke-width="1.2" stroke="#f00" stroke-miterlimit="10" fill="none"/><path d="M52.797 203.36L46.22 187.24" stroke-width="1.2" stroke="#000" stroke-miterlimit="10" fill="none"/><path d="M46.22 187.242l-6.575-16.113" stroke-width="1.2" stroke="#f00" stroke-miterlimit="10" fill="none"/><path d="M56.586 201.813l-10.668 13.753" stroke-width="1.2" stroke="#000" stroke-miterlimit="10" fill="none"/><path d="M45.918 215.566L35.25 229.32" stroke-width="1.2" stroke="#f00" stroke-miterlimit="10" fill="none"/><path d="M32.434 161.582h11v16h-11zm0 0" fill="#fff"/><use xlink:href="#b" x="32.434" y="173.958" fill="#f00"/><path d="M14.25 221.32h21v16h-21zm0 0" fill="#fff"/><g fill="#f00"><use xlink:href="#c" x="14.25" y="233.696"/><use xlink:href="#b" x="24.272" y="233.696"/></g><path d="M234.254 177.957l.234 34.81M232.414 209.234l-15.016 8.8" stroke-width="1.2" stroke="#000" stroke-miterlimit="10" fill="none"/><path d="M217.398 218.035l-15.015 8.805" stroke-width="1.2" stroke="#f00" stroke-miterlimit="10" fill="none"/><path d="M236.56 216.3l-15.017 8.802" stroke-width="1.2" stroke="#000" stroke-miterlimit="10" fill="none"/><path d="M221.543 225.102l-15.016 8.804" stroke-width="1.2" stroke="#f00" stroke-miterlimit="10" fill="none"/><path d="M234.488 212.766l15.13 8.605" stroke-width="1.2" stroke="#000" stroke-miterlimit="10" fill="none"/><path d="M249.617 221.37l15.133 8.603" stroke-width="1.2" stroke="#f00" stroke-miterlimit="10" fill="none"/><path d="M193.453 222.37h11v16h-11zm0 0" fill="#fff"/><use xlink:href="#b" x="193.453" y="234.747" fill="#f00"/><path d="M254.75 221.973h21v16h-21zm0 0" fill="#fff"/><g fill="#f00"><use xlink:href="#b" x="254.75" y="234.349"/><use xlink:href="#c" x="265.24" y="234.349"/></g></g></svg>
